Costumes/S-story-2.svg

<?xml version="1.0" encoding="utf-8"?>
<!-- Generator: Adobe Illustrator 18.0.0, SVG Export Plug-In . SVG Version: 6.00 Build 0)  -->
<!DOCTYPE svg PUBLIC "-//W3C//DTD SVG 1.1//EN" "http://www.w3.org/Graphics/SVG/1.1/DTD/svg11.dtd">
<svg version="1.1" id="Layer_2" xmlns="http://www.w3.org/2000/svg" xmlns:xlink="http://www.w3.org/1999/xlink" x="0px" y="0px"
	 viewBox="0 0 32.7 50.3" enable-background="new 0 0 32.7 50.3" xml:space="preserve">
<g>
	<path fill="#F7941E" d="M32.2,31.2c-0.6-2.8-1.8-5.1-4.1-6.8c-1.5-1.1-3.1-1.7-4.8-2.3c-3.5-1.1-7-2.1-10.1-4.1
		c-1.6-1.1-3-2.3-3.3-4.3c-0.2-1.4-0.3-2.9-0.1-4.3c0.3-2.5,2.2-4.2,4.4-4.3C17,4.9,20.4,7,21.5,9.6c0.6,1.5,1.2,3.1,1.7,4.7
		c0.2,0.6,0.6,0.8,1.2,0.8c0.8,0,1.6-0.1,2.4-0.1c0.2,0,0.5-0.1,0.7-0.3c1-0.9,1.9-1.9,2.8-2.8c0.4-0.4,0.5-0.8,0.5-1.3
		c0.1-2.3,0.1-4.6,0.3-6.9c0.2-1.9,0.3-1.9-1.7-1.9c-1.2,0-1.2,0-1.2,1.2c0,0.1,0,0.2,0,0.4C28,3.1,27.9,3,27.7,2.9
		c-2.1-1.1-4.3-2.2-6.6-2.6c-2.5-0.4-5-0.6-7.5,0.4c-1.7,0.7-3.3,1.4-5,2.2c-2.2,1.1-4.4,2.4-6,4.4c-1,1.2-1.9,2.6-2.3,4.2
		c-0.6,2.5-0.2,5,0.6,7.4c1,3.2,2.9,5.7,5.8,7.4c3.2,1.9,6.5,3.4,9.8,5.2c1.6,0.9,3.2,1.8,4.5,3.1c1.6,1.6,2.1,3.5,1.1,5.6
		c-0.8,1.7-1.7,3.3-3.6,4.1c-1.6,0.6-3.2,0.8-4.8,0.2c-2.2-0.8-3.9-2.1-5-4c-0.9-1.4-1.2-3.1-1.8-4.7c-0.1-0.2-0.4-0.6-0.6-0.5
		c-1,0-2-0.3-2.8,0.8c-0.5,0.7-1.4,1.2-2.2,1.7c-0.8,0.5-1.2,1.2-1.1,2.2c0.1,1.9,0.1,3.7,0.1,5.6c0,1,0,1.9,0,2.9
		c1.7-0.2,3.5,0.8,4.5-0.9c2,0.7,3.7,1.4,5.6,1.8c3.3,0.8,6.7,0.8,10,0.3c0.8-0.1,1.6-0.4,2.4-0.8c2.9-1.3,5-3.6,7.1-5.8
		c0.8-0.9,1.6-1.9,2-3.1C32.9,37.3,32.9,34.3,32.2,31.2z M31.3,39.5c-0.3,1-0.8,2-1.5,2.8c-1.3,1.6-2.9,2.8-4.8,3.7
		c-1.4,0.7-2.8,0.8-4.3,1c-4.5,0.5-8.7-0.4-12.8-2c-0.7-0.3-1.5-0.5-2.2-0.7c0,0.5,0.2,1,0.1,1.2c-0.2,0.3-0.7,0.3-1.4,0.5
		c0.1-3.5,0.3-6.8,0.4-10.1c0.4,0.1,0.7,0.1,1,0.2c0.2,0.1,0.5,0.4,0.5,0.6c0.7,4.5,3.4,7.4,7.7,8.8c1.9,0.6,3.8,0,5.7-0.2
		c4.5-0.5,7.5-5.4,7.7-8.8c0.2-3.2-0.7-5.8-3.8-7.4c-2.7-1.4-5.3-2.8-8-4.2c-3.2-1.6-6.2-3.3-8.5-6.1c-2.4-2.9-2.9-6.3-1.5-9.9
		c1.1-2.8,3.1-5,5.7-6.4c2.4-1.3,5-2,7.8-1.8c3.1,0.2,5.7,1.6,8.4,2.9c0.2,0.1,0.3,0.2,0.5,0.3c0.1,0.1,0.3,0.2,0.5,0.3
		c0.1-0.7,0.1-1.4,0.4-1.8C29.2,2,30,2.2,30.4,2.1c-0.1,2.9-0.2,5.7-0.3,8.5c-1.4,0-1.4-0.1-1.8-1.3c-0.4-1.2-0.9-2.3-1.7-3.3
		c-2.1-2.5-4.8-4.1-8.2-3.9c-3.2,0.2-6.1,1.2-8.1,4c-1,1.5-1.4,3.2-1.4,4.9c0,1.1,0.2,2.2,0.4,3.2c0.5,1.9,1.8,3.1,3.4,4.1
		c3.2,2.1,6.8,3.1,10.4,4.3c1.1,0.4,2.3,0.8,3.3,1.4c2.9,1.5,4.4,4,5,7.2C32.2,34,32.2,36.8,31.3,39.5z"/>
	<path fill="#FFFFFF" d="M31.6,31.2c-0.7-3.2-2.2-5.6-5-7.2c-1.1-0.6-2.2-1-3.3-1.4c-3.6-1.2-7.2-2.2-10.4-4.3
		c-1.6-1-2.9-2.2-3.4-4.1c-0.2-1-0.4-2.1-0.4-3.2c0-1.8,0.4-3.5,1.4-4.9c1.9-2.8,4.9-3.8,8.1-4c3.4-0.2,6.1,1.4,8.2,3.9
		c0.8,0.9,1.3,2.1,1.7,3.3c0.4,1.2,0.4,1.3,1.8,1.3c0.1-2.8,0.2-5.6,0.3-8.5c-0.5,0-1.2-0.1-1.4,0.1c-0.3,0.4-0.3,1.1-0.4,1.8
		c-0.2-0.1-0.3-0.2-0.5-0.3c-0.1-0.1-0.3-0.2-0.5-0.3c-2.7-1.3-5.3-2.7-8.4-2.9c-2.8-0.2-5.4,0.5-7.8,1.8C8.9,3.8,6.9,6,5.7,8.8
		c-1.5,3.6-0.9,7,1.5,9.9c2.2,2.7,5.3,4.5,8.5,6.1c2.7,1.4,5.3,2.8,8,4.2c3.1,1.5,4,4.2,3.8,7.4c-0.2,3.3-3.2,8.2-7.7,8.8
		c-1.9,0.2-3.8,0.8-5.7,0.2c-4.3-1.3-7-4.2-7.7-8.8c0-0.2-0.3-0.5-0.5-0.6c-0.3-0.1-0.7-0.1-1-0.2c-0.2,3.3-0.3,6.6-0.4,10.1
		c0.6-0.2,1.2-0.2,1.4-0.5c0.2-0.2,0-0.7-0.1-1.2c0.8,0.2,1.5,0.5,2.2,0.7c4.1,1.6,8.4,2.5,12.8,2c1.5-0.2,2.9-0.3,4.3-1
		c1.9-0.9,3.5-2.2,4.8-3.7c0.7-0.8,1.2-1.8,1.5-2.8C32.2,36.8,32.2,34,31.6,31.2z M28.5,5.3c0.2,0.1,0.4,0.3,0.6,0.5
		c-0.2,0.2-0.3,0.3-0.6,0.6C28.2,6.1,28,5.9,28,5.7C28,5.5,28.3,5.3,28.5,5.3z M25.9,3.5c0.5,0.3,1,0.5,1.4,0.8
		c0.1,0.1,0.1,0.4,0.1,0.5c-0.2,0-0.4,0-0.5-0.1c-0.4-0.3-0.8-0.7-1.2-1C25.8,3.6,25.8,3.5,25.9,3.5z M6,42.1
		c-0.2-0.2-0.5-0.5-0.6-0.8c0-0.1,0.3-0.3,0.6-0.7c0.3,0.4,0.5,0.7,0.5,0.9C6.6,41.8,6.2,42,6,42.1z M7.4,42.8
		C8,43.1,8.5,43.4,9,43.7C8.5,44.2,8,44,7.4,42.8z M15.5,22.5c-1.1-0.5-2.2-1-3.2-1.7c-0.8-0.4-1.5-0.9-2.2-1.5
		c-2.4-2.2-3.6-4.9-3.3-8.1c0-0.6,0.1-1.2,0.2-1.7c0.1,0,0.1,0,0.2-0.1c0.1,0.3,0.1,0.6,0.2,0.9c0.2,1.4,0.2,2.9,0.6,4.3
		c0.6,2.3,2,4.1,4.2,5.3c1.2,0.6,2.5,1.3,3.7,2c0.1,0.1,0.1,0.3,0.2,0.4C15.9,22.4,15.6,22.6,15.5,22.5z M18,24.3
		c-0.3-0.4-0.7-0.6-0.7-0.8c0-0.2,0.4-0.4,0.6-0.7c0.2,0.2,0.5,0.5,0.6,0.8C18.6,23.7,18.3,24,18,24.3z M29.7,37.3
		c-0.1,0.8-0.6,1.5-1,2.2c-0.1,0.1-0.2,0.1-0.4,0.2c0.3-1.1,0.7-2,0.8-3.1c0.3-2.7-0.2-5.3-1.8-7.5c-1.2-1.6-2.9-2.8-5-3.2
		c-0.7-0.1-1.3-0.6-1.9-0.9c-0.1-0.1-0.1-0.3-0.2-0.4c0.2-0.1,0.4-0.2,0.5-0.2c1.7,1.3,4,1.2,5.7,2.7c1.9,1.7,3,3.8,3.2,6.3
		C29.8,34.7,29.8,36,29.7,37.3z"/>
	<path fill="#F7941E" d="M29.7,37.3c-0.1,0.8-0.6,1.5-1,2.2c-0.1,0.1-0.2,0.1-0.4,0.2c0.3-1.1,0.7-2,0.8-3.1
		c0.3-2.7-0.2-5.3-1.8-7.5c-1.2-1.6-2.9-2.8-5-3.2c-0.7-0.1-1.3-0.6-1.9-0.9c-0.1-0.1-0.1-0.3-0.2-0.4c0.2-0.1,0.4-0.2,0.5-0.2
		c1.7,1.3,4,1.2,5.7,2.7c1.9,1.7,3,3.8,3.2,6.3C29.8,34.7,29.8,36,29.7,37.3z"/>
	<path fill="#F7941E" d="M16,22.3c-0.2,0.1-0.4,0.3-0.5,0.2c-1.1-0.5-2.2-1-3.2-1.7c-0.8-0.4-1.5-0.9-2.2-1.5
		c-2.4-2.2-3.6-4.9-3.3-8.1c0-0.6,0.1-1.2,0.2-1.7c0.1,0,0.1,0,0.2-0.1c0.1,0.3,0.1,0.6,0.2,0.9c0.2,1.4,0.2,2.9,0.6,4.3
		c0.6,2.3,2,4.1,4.2,5.3c1.2,0.6,2.5,1.3,3.7,2C15.9,21.9,16,22.2,16,22.3z"/>
	<path fill="#F7941E" d="M18.6,23.6c0,0.1-0.3,0.4-0.6,0.8c-0.3-0.4-0.7-0.6-0.7-0.8c0-0.2,0.4-0.4,0.6-0.7
		C18.2,23.1,18.5,23.3,18.6,23.6z"/>
	<path fill="#F7941E" d="M6.6,41.6c0,0.2-0.4,0.4-0.5,0.5c-0.2-0.2-0.5-0.5-0.6-0.8c0-0.1,0.3-0.3,0.6-0.7
		C6.3,41.1,6.6,41.4,6.6,41.6z"/>
	<path fill="#F7941E" d="M27.4,4.9c-0.2,0-0.4,0-0.5-0.1c-0.4-0.3-0.8-0.7-1.2-1c0-0.1,0.1-0.2,0.2-0.2c0.5,0.3,1,0.5,1.4,0.8
		C27.4,4.4,27.4,4.7,27.4,4.9z"/>
	<path fill="#F7941E" d="M29,5.8c-0.2,0.2-0.3,0.3-0.6,0.6C28.2,6.1,28,5.9,28,5.7c0-0.1,0.4-0.4,0.5-0.4C28.7,5.4,28.9,5.6,29,5.8z
		"/>
	<path fill="#F7941E" d="M9,43.7C8.5,44.2,8,44,7.4,42.8C8,43.1,8.5,43.4,9,43.7z"/>
</g>
</svg>

<?xml version="1.0" encoding="UTF-8" standalone="no"?>
<!-- Generator: Adobe Illustrator 18.0.0, SVG Export Plug-In . SVG Version: 6.00 Build 0)  -->

<svg
   version="1.1"
   id="Layer_2"
   x="0px"
   y="0px"
   viewBox="0 0 32.681377 50.071774"
   enable-background="new 0 0 32.7 50.3"
   xml:space="preserve"
   sodipodi:docname="S-story-2.svg"
   width="32.681377"
   height="50.071774"
   xmlns:inkscape="http://www.inkscape.org/namespaces/inkscape"
   xmlns:sodipodi="http://sodipodi.sourceforge.net/DTD/sodipodi-0.dtd"
   xmlns="http://www.w3.org/2000/svg"
   xmlns:svg="http://www.w3.org/2000/svg"><defs
   id="defs25" /><sodipodi:namedview
   id="namedview23"
   pagecolor="#ffffff"
   bordercolor="#000000"
   borderopacity="0.25"
   inkscape:showpageshadow="2"
   inkscape:pageopacity="0.0"
   inkscape:pagecheckerboard="0"
   inkscape:deskcolor="#d1d1d1" />
<g
   id="g20"
   transform="translate(-0.01111111,0.02772596)">
	<path
   fill="#f7941e"
   d="M 32.2,31.2 C 31.6,28.4 30.4,26.1 28.1,24.4 26.6,23.3 25,22.7 23.3,22.1 19.8,21 16.3,20 13.2,18 11.6,16.9 10.2,15.7 9.9,13.7 9.7,12.3 9.6,10.8 9.8,9.4 10.1,6.9 12,5.2 14.2,5.1 17,4.9 20.4,7 21.5,9.6 c 0.6,1.5 1.2,3.1 1.7,4.7 0.2,0.6 0.6,0.8 1.2,0.8 0.8,0 1.6,-0.1 2.4,-0.1 0.2,0 0.5,-0.1 0.7,-0.3 1,-0.9 1.9,-1.9 2.8,-2.8 0.4,-0.4 0.5,-0.8 0.5,-1.3 0.1,-2.3 0.1,-4.6 0.3,-6.9 0.2,-1.9 0.3,-1.9 -1.7,-1.9 -1.2,0 -1.2,0 -1.2,1.2 0,0.1 0,0.2 0,0.4 C 28,3.1 27.9,3 27.7,2.9 25.6,1.8 23.4,0.7 21.1,0.3 c -2.5,-0.4 -5,-0.6 -7.5,0.4 -1.7,0.7 -3.3,1.4 -5,2.2 -2.2,1.1 -4.4,2.4 -6,4.4 -1,1.2 -1.9,2.6 -2.3,4.2 -0.6,2.5 -0.2,5 0.6,7.4 1,3.2 2.9,5.7 5.8,7.4 3.2,1.9 6.5,3.4 9.8,5.2 1.6,0.9 3.2,1.8 4.5,3.1 1.6,1.6 2.1,3.5 1.1,5.6 -0.8,1.7 -1.7,3.3 -3.6,4.1 -1.6,0.6 -3.2,0.8 -4.8,0.2 -2.2,-0.8 -3.9,-2.1 -5,-4 C 7.8,39.1 7.5,37.4 6.9,35.8 6.8,35.6 6.5,35.2 6.3,35.3 5.3,35.3 4.3,35 3.5,36.1 3,36.8 2.1,37.3 1.3,37.8 0.5,38.3 0.1,39 0.2,40 c 0.1,1.9 0.1,3.7 0.1,5.6 0,1 0,1.9 0,2.9 1.7,-0.2 3.5,0.8 4.5,-0.9 2,0.7 3.7,1.4 5.6,1.8 3.3,0.8 6.7,0.8 10,0.3 0.8,-0.1 1.6,-0.4 2.4,-0.8 2.9,-1.3 5,-3.6 7.1,-5.8 0.8,-0.9 1.6,-1.9 2,-3.1 1,-2.7 1,-5.7 0.3,-8.8 z m -0.9,8.3 c -0.3,1 -0.8,2 -1.5,2.8 -1.3,1.6 -2.9,2.8 -4.8,3.7 -1.4,0.7 -2.8,0.8 -4.3,1 C 16.2,47.5 12,46.6 7.9,45 7.2,44.7 6.4,44.5 5.7,44.3 c 0,0.5 0.2,1 0.1,1.2 -0.2,0.3 -0.7,0.3 -1.4,0.5 0.1,-3.5 0.3,-6.8 0.4,-10.1 0.4,0.1 0.7,0.1 1,0.2 0.2,0.1 0.5,0.4 0.5,0.6 0.7,4.5 3.4,7.4 7.7,8.8 1.9,0.6 3.8,0 5.7,-0.2 4.5,-0.5 7.5,-5.4 7.7,-8.8 0.2,-3.2 -0.7,-5.8 -3.8,-7.4 -2.7,-1.4 -5.3,-2.8 -8,-4.2 C 12.4,23.3 9.4,21.6 7.1,18.8 4.7,15.9 4.2,12.5 5.6,8.9 c 1.1,-2.8 3.1,-5 5.7,-6.4 2.4,-1.3 5,-2 7.8,-1.8 3.1,0.2 5.7,1.6 8.4,2.9 0.2,0.1 0.3,0.2 0.5,0.3 0.1,0.1 0.3,0.2 0.5,0.3 C 28.6,3.5 28.6,2.8 28.9,2.4 29.2,2 30,2.2 30.4,2.1 30.3,5 30.2,7.8 30.1,10.6 28.7,10.6 28.7,10.5 28.3,9.3 27.9,8.1 27.4,7 26.6,6 24.5,3.5 21.8,1.9 18.4,2.1 c -3.2,0.2 -6.1,1.2 -8.1,4 -1,1.5 -1.4,3.2 -1.4,4.9 0,1.1 0.2,2.2 0.4,3.2 0.5,1.9 1.8,3.1 3.4,4.1 3.2,2.1 6.8,3.1 10.4,4.3 1.1,0.4 2.3,0.8 3.3,1.4 2.9,1.5 4.4,4 5,7.2 0.8,2.8 0.8,5.6 -0.1,8.3 z"
   id="path2" />
	<path
   fill="#ffffff"
   d="M 31.6,31.2 C 30.9,28 29.4,25.6 26.6,24 25.5,23.4 24.4,23 23.3,22.6 19.7,21.4 16.1,20.4 12.9,18.3 11.3,17.3 10,16.1 9.5,14.2 9.3,13.2 9.1,12.1 9.1,11 c 0,-1.8 0.4,-3.5 1.4,-4.9 1.9,-2.8 4.9,-3.8 8.1,-4 3.4,-0.2 6.1,1.4 8.2,3.9 0.8,0.9 1.3,2.1 1.7,3.3 0.4,1.2 0.4,1.3 1.8,1.3 C 30.4,7.8 30.5,5 30.6,2.1 30.1,2.1 29.4,2 29.2,2.2 28.9,2.6 28.9,3.3 28.8,4 28.6,3.9 28.5,3.8 28.3,3.7 28.2,3.6 28,3.5 27.8,3.4 25.1,2.1 22.5,0.7 19.4,0.5 16.6,0.3 14,1 11.6,2.3 8.9,3.8 6.9,6 5.7,8.8 c -1.5,3.6 -0.9,7 1.5,9.9 2.2,2.7 5.3,4.5 8.5,6.1 2.7,1.4 5.3,2.8 8,4.2 3.1,1.5 4,4.2 3.8,7.4 -0.2,3.3 -3.2,8.2 -7.7,8.8 C 17.9,45.4 16,46 14.1,45.4 9.8,44.1 7.1,41.2 6.4,36.6 6.4,36.4 6.1,36.1 5.9,36 5.6,35.9 5.2,35.9 4.9,35.8 4.7,39.1 4.6,42.4 4.5,45.9 c 0.6,-0.2 1.2,-0.2 1.4,-0.5 0.2,-0.2 0,-0.7 -0.1,-1.2 0.8,0.2 1.5,0.5 2.2,0.7 4.1,1.6 8.4,2.5 12.8,2 1.5,-0.2 2.9,-0.3 4.3,-1 1.9,-0.9 3.5,-2.2 4.8,-3.7 0.7,-0.8 1.2,-1.8 1.5,-2.8 0.8,-2.6 0.8,-5.4 0.2,-8.2 z M 28.5,5.3 c 0.2,0.1 0.4,0.3 0.6,0.5 C 28.9,6 28.8,6.1 28.5,6.4 28.2,6.1 28,5.9 28,5.7 28,5.5 28.3,5.3 28.5,5.3 Z M 25.9,3.5 c 0.5,0.3 1,0.5 1.4,0.8 0.1,0.1 0.1,0.4 0.1,0.5 -0.2,0 -0.4,0 -0.5,-0.1 C 26.5,4.4 26.1,4 25.7,3.7 25.8,3.6 25.8,3.5 25.9,3.5 Z M 6,42.1 C 5.8,41.9 5.5,41.6 5.4,41.3 5.4,41.2 5.7,41 6,40.6 6.3,41 6.5,41.3 6.5,41.5 6.6,41.8 6.2,42 6,42.1 Z m 1.4,0.7 C 8,43.1 8.5,43.4 9,43.7 8.5,44.2 8,44 7.4,42.8 Z M 15.5,22.5 C 14.4,22 13.3,21.5 12.3,20.8 11.5,20.4 10.8,19.9 10.1,19.3 7.7,17.1 6.5,14.4 6.8,11.2 6.8,10.6 6.9,10 7,9.5 c 0.1,0 0.1,0 0.2,-0.1 0.1,0.3 0.1,0.6 0.2,0.9 0.2,1.4 0.2,2.9 0.6,4.3 0.6,2.3 2,4.1 4.2,5.3 1.2,0.6 2.5,1.3 3.7,2 0.1,0.1 0.1,0.3 0.2,0.4 -0.2,0.1 -0.5,0.3 -0.6,0.2 z m 2.5,1.8 c -0.3,-0.4 -0.7,-0.6 -0.7,-0.8 0,-0.2 0.4,-0.4 0.6,-0.7 0.2,0.2 0.5,0.5 0.6,0.8 0.1,0.1 -0.2,0.4 -0.5,0.7 z m 11.7,13 c -0.1,0.8 -0.6,1.5 -1,2.2 -0.1,0.1 -0.2,0.1 -0.4,0.2 0.3,-1.1 0.7,-2 0.8,-3.1 0.3,-2.7 -0.2,-5.3 -1.8,-7.5 -1.2,-1.6 -2.9,-2.8 -5,-3.2 -0.7,-0.1 -1.3,-0.6 -1.9,-0.9 -0.1,-0.1 -0.1,-0.3 -0.2,-0.4 0.2,-0.1 0.4,-0.2 0.5,-0.2 1.7,1.3 4,1.2 5.7,2.7 1.9,1.7 3,3.8 3.2,6.3 0.2,1.3 0.2,2.6 0.1,3.9 z"
   id="path4" />
	<path
   fill="#f7941e"
   d="m 29.7,37.3 c -0.1,0.8 -0.6,1.5 -1,2.2 -0.1,0.1 -0.2,0.1 -0.4,0.2 0.3,-1.1 0.7,-2 0.8,-3.1 0.3,-2.7 -0.2,-5.3 -1.8,-7.5 -1.2,-1.6 -2.9,-2.8 -5,-3.2 -0.7,-0.1 -1.3,-0.6 -1.9,-0.9 -0.1,-0.1 -0.1,-0.3 -0.2,-0.4 0.2,-0.1 0.4,-0.2 0.5,-0.2 1.7,1.3 4,1.2 5.7,2.7 1.9,1.7 3,3.8 3.2,6.3 0.2,1.3 0.2,2.6 0.1,3.9 z"
   id="path6" />
	<path
   fill="#f7941e"
   d="m 16,22.3 c -0.2,0.1 -0.4,0.3 -0.5,0.2 C 14.4,22 13.3,21.5 12.3,20.8 11.5,20.4 10.8,19.9 10.1,19.3 7.7,17.1 6.5,14.4 6.8,11.2 6.8,10.6 6.9,10 7,9.5 c 0.1,0 0.1,0 0.2,-0.1 0.1,0.3 0.1,0.6 0.2,0.9 0.2,1.4 0.2,2.9 0.6,4.3 0.6,2.3 2,4.1 4.2,5.3 1.2,0.6 2.5,1.3 3.7,2 0,0 0.1,0.3 0.1,0.4 z"
   id="path8" />
	<path
   fill="#f7941e"
   d="m 18.6,23.6 c 0,0.1 -0.3,0.4 -0.6,0.8 -0.3,-0.4 -0.7,-0.6 -0.7,-0.8 0,-0.2 0.4,-0.4 0.6,-0.7 0.3,0.2 0.6,0.4 0.7,0.7 z"
   id="path10" />
	<path
   fill="#f7941e"
   d="m 6.6,41.6 c 0,0.2 -0.4,0.4 -0.5,0.5 -0.2,-0.2 -0.5,-0.5 -0.6,-0.8 0,-0.1 0.3,-0.3 0.6,-0.7 0.2,0.5 0.5,0.8 0.5,1 z"
   id="path12" />
	<path
   fill="#f7941e"
   d="m 27.4,4.9 c -0.2,0 -0.4,0 -0.5,-0.1 -0.4,-0.3 -0.8,-0.7 -1.2,-1 0,-0.1 0.1,-0.2 0.2,-0.2 0.5,0.3 1,0.5 1.4,0.8 0.1,0 0.1,0.3 0.1,0.5 z"
   id="path14" />
	<path
   fill="#f7941e"
   d="M 29,5.8 C 28.8,6 28.7,6.1 28.4,6.4 28.2,6.1 28,5.9 28,5.7 28,5.6 28.4,5.3 28.5,5.3 28.7,5.4 28.9,5.6 29,5.8 Z"
   id="path16" />
	<path
   fill="#f7941e"
   d="M 9,43.7 C 8.5,44.2 8,44 7.4,42.8 8,43.1 8.5,43.4 9,43.7 Z"
   id="path18" />
</g>
</svg>
